!!!OTL: Der verlorene Schuh Ich hett einmal mein Huet verlohrn
!!!ARE: Europa, Mitteleuropa, Deutschland
!!!YOR: 6, S. 119
!!    1646 Handschrift Kloster Seeon
!!!SCT: Q0128
!!!YEM: Copyright 1995, estate of Helmut Schaffrath.
**kern
*ICvox
*Ivox
!! Irregular meter.
*MX
*k[f#]
*G:
{4g
=1
4g
4g
4g
4g
=2
4a
4a
4a}
{4g
=3
4b
4cc
4dd
4b
=4
2a
2g
4r}
{4g
=5
4g
4g
4g
4g
=6
4a
4a
4a}
{4g
=7
4b
4cc
4dd
4b
=8
2a
2g
4r}
{4g
=9
4dd
4dd
4dd
4cc
=10
8dd
8cc
4b
2a
4r}
{4a
=11
4b
4b
8b
8cc
4dd
=12
4b
4cc
2g
4r}
{4g
4a
4g
=13
2dd
4r}
{4ee
=14
4dd
4cc
8dd
8g
4a
=15
2.g}
==
!!!AGN: Ballade, Verfuehrung, verbotene Liebe, Ausrede; Schwank
!! Kontrafaktur, Ballade wurde vermutlich nach der Melodie des Schwankes
!!    "Pfaffenschandlied" gesungen.
!!!ONB: ESAC (Essen Associative Code) Database: BALLADE
!!!AMT: irregular
!!!AIN: vox
!!!EED: Helmut Schaffrath
!!!EEV: 1.0
*-
